lib/radiotmp/nrk-dialogue-expressive.svg

<svg width="24" height="24" viewBox="0 0 24 24" fill="none" xmlns="http://www.w3.org/2000/svg">
<path fill-rule="evenodd" clip-rule="evenodd" d="M23 15.5C23 13.567 21.433 12 19.5 12H9.5C7.567 12 6 13.567 6 15.5C6 17.433 7.567 19 9.5 19H17L18.753 21.6295C18.9073 21.861 19.1671 22 19.4453 22C20.1099 22 20.5062 21.2594 20.1376 20.7064L19 19H19.5C21.433 19 23 17.433 23 15.5Z" fill="black"/>
<path opacity="0.5" fill-rule="evenodd" clip-rule="evenodd" d="M4.5 9C2.567 9 1 7.433 1 5.5C1 3.567 2.567 2 4.5 2H14.5C16.433 2 18 3.567 18 5.5C18 7.433 16.433 9 14.5 9H8L6.24701 11.6295C6.09269 11.861 5.8329 12 5.5547 12C4.89015 12 4.49376 11.2594 4.86239 10.7064L6 9H4.5ZM4.5 7C3.67157 7 3 6.32843 3 5.5C3 4.67157 3.67157 4 4.5 4H14.5C15.3284 4 16 4.67157 16 5.5C16 6.32843 15.3284 7 14.5 7H4.5Z" fill="black"/>
</svg>

<svg xmlns="http://www.w3.org/2000/svg" viewBox="0 0 24 24"><path fill="#000" fill-rule="evenodd" d="M23 15.5a3.5 3.5 0 0 0-3.5-3.5h-10a3.5 3.5 0 1 0 0 7H17l1.753 2.63a.832.832 0 1 0 1.385-.924L19 19h.5a3.5 3.5 0 0 0 3.5-3.5Z" clip-rule="evenodd"/><path fill="#000" fill-rule="evenodd" d="M4.5 9a3.5 3.5 0 1 1 0-7h10a3.5 3.5 0 1 1 0 7H8l-1.753 2.63a.832.832 0 1 1-1.385-.924L6 9H4.5Zm0-2a1.5 1.5 0 1 1 0-3h10a1.5 1.5 0 0 1 0 3h-10Z" clip-rule="evenodd" opacity=".5"/></svg>
